svgs/regular/lock-open.svg

<svg xmlns="http://www.w3.org/2000/svg" viewBox="0 0 576 512"><!-- Font Awesome Pro 6.0.0-alpha2 by @fontawesome - https://fontawesome.com License - https://fontawesome.com/license (Commercial License) --><path d="M432 0C361.422 0 304 57.422 304 128V192H64C28.654 192 0 220.654 0 256V448C0 483.346 28.654 512 64 512H384C419.346 512 448 483.346 448 448V256C448 220.654 419.346 192 384 192H352V128C352 83.891 387.891 48 432 48S512 83.891 512 128V200C512 213.25 522.75 224 536 224S560 213.25 560 200V128C560 57.422 502.578 0 432 0ZM384 240C392.822 240 400 247.178 400 256V448C400 456.822 392.822 464 384 464H64C55.178 464 48 456.822 48 448V256C48 247.178 55.178 240 64 240H384ZM224 400C237.25 400 248 389.25 248 376V328C248 314.75 237.25 304 224 304S200 314.75 200 328V376C200 389.25 210.75 400 224 400Z"/></svg>

<svg xmlns="http://www.w3.org/2000/svg" viewBox="0 0 576 512"><!--! Font Awesome Pro 6.3.0 by @fontawesome - https://fontawesome.com License - https://fontawesome.com/license (Commercial License) Copyright 2023 Fonticons, Inc. --><path d="M352 128c0-44.2 35.8-80 80-80s80 35.8 80 80v72c0 13.3 10.7 24 24 24s24-10.7 24-24V128C560 57.3 502.7 0 432 0S304 57.3 304 128v64H64c-35.3 0-64 28.7-64 64V448c0 35.3 28.7 64 64 64H384c35.3 0 64-28.7 64-64V256c0-35.3-28.7-64-64-64H352V128zM64 240H384c8.8 0 16 7.2 16 16V448c0 8.8-7.2 16-16 16H64c-8.8 0-16-7.2-16-16V256c0-8.8 7.2-16 16-16z"/></svg>
